X:47
T: The Morning Star  Hornpipe   Allan's  #47
C:Trad/Anon
B:Allan's Irish Fiddler (pub. Mozart Allen,  Glascow) date unknown
Z:FROM ALLAN'S TO NOTEWORTHY, FROM NOTEWORTHY TO ABC, MIDI AND .TXT BY VINCE
BRENNAN Dec. 2002 (HTTP://WWW.SOSYOURMOM.COM)
I:abc2nwc
M:2/2
L:1/8
K:G
GA|:B2({c}BA) BGEF|G2(Bd) efgd|B2({c}BA) BGEF|GBAF (G2G)A|
B2({c}BA) BGEF|GABd efgd|B2({c}BA) BGEF|GBAFG2||
(GA)||Bdef g2(eg)|f2(df) edBA|Bdef gfgb|afdf e2(ed)|
Bdef g2(eg)|f2(df) edBA|B2d2d2(ef)|gfaf gedc|]
